X: 84
T:The Galtee Ranger
S:Kevin Burke/Jackie Daly/Brendan Begley/and someone
Z:Barney
M:4/4
L:1/8
K:D
AFFE   FEDE|  (3FFF  FE  FAdB | AFFE FEDE | FAEG FDDB|
AFFE FEDE|  (3FFF FE FAdB | AFFE  FEDE| ABAG FD (3DDD||
|: A2 AB AF (3FFF |  ABde feeg | fedB AFAB|1 ABde fe (3eee :||2 ABBe fdd2 ||
